X: 405
%
U:~=!turn!
T: Miss Jane Fraser
C:Robt. Macintosh
O:Scotland
B:Keith Norman MacDonald : "The Skye collection of the best reels & strathspeys extant" : 1887
Z:Ralph Palmer
R:Reel
M:C
L:1/8
K:G
B | d3 g (BG)dB | (Aa)ag (fd)ef | {/a}(gf)gd (Bc)dB | cAdc BGG :|
c | BGDG EGDG | ABcB cedc | BGDG EGce | dBcA BGGc |
BGDG EGDG | (AB)cB (ce)dc | BdgB ceag | fdef gGG |]


